X:38
T:Bourre carre de la Chtre
R:Bourre  2 temps
A:Berry
O:France
M:2/4
L:1/8
Q:1/8=210
K:G
G>A Bc|d2d2|e>f ge|d>c BA|G>A Bc|d2d2|e>f ge|d3 d:|
|:B>G Bd|c/2d/2c/2B/2 AB|c>B ce|d/2e/2d/2c/2 Bd|B>G
Bd|c/2d/2c/2B/2 AB|c>d ef|g3 d:||
